X: 1
T:The March of King Laois  "arr. Kent Hiestand"
M:6/8
L:1/8
Q:80
C:Traditional Irish
S:March 6/8
K:HP
{g}e{A}ec{gef}e2A|
{g}e{A}ec{gef}e2A|
{g}f{e}fd{gef}e2c|  !
{Gdc}d2c{gBd}B2{G}A|1
{g}e{A}ec{gef}e2A|
{g}e{A}ec{gef}e2a:|2  !
{gef}e2c{gef}e2A|
{gef}e2c{gef}e2a|
{fg}f2ae3/2a/2d|  !
{g}c3/2a/2c{gBd}B2{G}A|
{gcd}c2{e}A{Gdc}d2B|
{gef}e3{A}e3/2d/2c|  !
{g}B3/2g/2d{g}B3/2G/2B|
{g}d3/2g/2d{g}B3/2G/2B|
{g}A3/2B/2A{g}A3/2B/2A|  !
{g}A3/2B/2A{g}A3/2B/2A:| |:
{g}f{e}fd{ag}a2d|
{g}f{e}fd{ag}a2d|  !
{gef}e2a{ef}e2c|
{gef}e2a{ef}e2g|
{fg}f2a{g}a2e|  !
{g}d3/2g/2d{g}B3/2c/2d|
{g}c3/2e/2A{g}d3/2e/2f|
{gef}e3{A}e3/2d/2c|  !
{g}B3/2g/2d{g}B3/2G/2B|
{g}d3/2g/2d{g}B3/2G/2B|
{g}A3/2B/2A{g}A3/2B/2A|  !
{g}A3/2B/2A{g}A3/2B/2A:| |:
{gef}e2c{gef}e2A|
{gef}e2c{gef}e2A|  !
{gfg}f2d{gef}e2c|
{Gdc}d2c{gBd}B2{G}A|
{gef}e2c{gef}e2A|  !
{g}e{A}ec{gef}e2a|
{fg}f2ae3/2a/2d|
{g}c3/2a/2c{gBd}B2{G}A|  !
{gcd}c2{e}A{Gdc}d2B|
{gef}e3{A}e3/2d/2c|
{g}B3/2g/2d{g}B3/2G/2B|  !
{g}d3/2g/2d{g}B3/2G/2B|
{g}A3/2B/2A{g}A3/2B/2A|
{g}A3/2B/2A{g}A3/2B/2A:| |:  !
{gfg}f2d{ag}a2d|
{gfg}f2d{ag}a2d|
{gef}e2a{ef}e2c|  !
{gef}e2a{ef}e2g|
{fg}f2a{g}a2e|
{g}d3/2g/2d{g}B3/2c/2d|  !
{g}c3/2e/2A{g}d3/2e/2f|
{gef}e3{A}e3/2d/2c|
{g}B3/2g/2d{g}B3/2G/2B|  !
{g}d3/2g/2d{g}B3/2G/2B|
{g}A3/2B/2A{g}A3/2B/2A|
{g}A3/2B/2A{g}A3/2B/2A:|  !
